24x24/apps/PosteRazor.svg

<svg xmlns="http://www.w3.org/2000/svg" width="24" height="24" version="1">
 <path style="opacity:0.2" d="M 3.8496094,6.5 C 3.3787094,6.5 3,6.8825645 3,7.357422 V 9 H 2.25 2 1.75 C 1.3345,9 1,9.3345 1,9.75 v 5.5 C 1,15.6655 1.3345,16 1.75,16 H 2 2.25 3 v 1.642578 C 3,18.117435 3.3787094,18.5 3.8496094,18.5 H 19.15039 C 19.62129,18.5 20,18.117435 20,17.642578 V 16 H 20.75 21 21.25 C 21.6655,16 22,15.6655 22,15.25 V 9.75 C 22,9.3345 21.6655,9 21.25,9 H 21 20.75 20 V 7.357422 C 20,6.8825645 19.62129,6.5 19.15039,6.5 Z"/>
 <rect style="fill:#afafb1" width="17" height="12" x="3" y="6" rx=".85" ry=".857"/>
 <path style="opacity:0.2" d="M 3.8496094,6 C 3.3787094,6 3,6.3825645 3,6.857422 V 7 H 20 V 6.857422 C 20,6.3825645 19.62129,6 19.15039,6 Z M 3,17 v 0.142578 C 3,17.617435 3.3787094,18 3.8496094,18 H 19.15039 C 19.62129,18 20,17.617435 20,17.142578 V 17 Z"/>
 <path style="fill:#afafb1" d="M 1.75,8.5 C 1.3345,8.5 1,8.8345 1,9.25 v 5.5 c 0,0.4155 0.3345,0.75 0.75,0.75 H 2 2.25 3 V 14.75 9.25 8.5 H 2.25 2 Z"/>
 <path style="fill:#afafb1" d="M 21.25,8.5 C 21.6655,8.5 22,8.8345 22,9.25 v 5.5 c 0,0.4155 -0.3345,0.75 -0.75,0.75 H 21 20.75 20 V 14.75 9.25 8.5 H 20.75 21 Z"/>
 <path style="opacity:0.1" d="m 11.5,9.5 c -1.269804,0.0018 -2.4009515,0.802815 -2.824219,2 H 8.5 7.5001365 7.15541 L 7.0313865,11.3125 6.6202535,10.6875 C 6.5400295,10.565174 6.388323,10.492717 6.2276755,10.5 c -0.144604,0.0068 -0.275451,0.07737 -0.347656,0.1875 L 5.4688865,11.3125 5.3448635,11.5 H 4 c 0,-0.554 -0.446,-1 -1,-1 -0.554,0 -1,0.446 -1,1 v 2 c 0,0.554 0.446,1 1,1 0.554,0 1,-0.446 1,-1 h 1.3448635 l 0.124023,0.1875 0.411133,0.625 c 0.072476,0.109753 0.2032745,0.179929 0.347656,0.186524 0.1604115,0.0075 0.3120595,-0.06457 0.392578,-0.186524 L 7.0313865,13.6875 7.15541,13.5 H 7.5001365 8.5 8.6748045 c 0.423387,1.197522 1.5550325,1.998632 2.8251955,2 1.269804,-0.0018 2.400952,-0.802815 2.824219,-2 H 14.5 15.499864 15.84459 l 0.124023,0.1875 0.411133,0.625 c 0.07248,0.109753 0.203274,0.179929 0.347656,0.186524 0.160411,0.0075 0.31206,-0.06457 0.392578,-0.186524 L 17.531113,13.6875 17.655136,13.5 H 19 c 0,0.554 0.446,1 1,1 0.554,0 1,-0.446 1,-1 v -2 c 0,-0.554 -0.446,-1 -1,-1 -0.554,0 -1,0.446 -1,1 H 17.655136 L 17.531113,11.3125 17.11998,10.6875 C 17.03976,10.565174 16.888049,10.492717 16.727402,10.5 c -0.144604,0.0068 -0.275451,0.07737 -0.347656,0.1875 L 15.968613,11.3125 15.84459,11.5 H 15.499864 14.5 14.325196 C 13.901809,10.302478 12.770163,9.5013685 11.5,9.5 Z"/>
 <path style="fill:#17191e" d="M 11.5,9 C 10.230196,9.0018 9.0990485,9.8028155 8.675781,11 H 8.5 7.5001365 7.15541 L 7.0313865,10.8125 6.6202535,10.1875 C 6.5400295,10.065174 6.388323,9.9927175 6.2276755,10 c -0.144604,0.0068 -0.275451,0.07737 -0.347656,0.1875 L 5.4688865,10.8125 5.3448635,11 H 4 C 4,10.446 3.554,10 3,10 2.446,10 2,10.446 2,11 v 2 c 0,0.554 0.446,1 1,1 0.554,0 1,-0.446 1,-1 h 1.3448635 l 0.124023,0.1875 0.411133,0.625 c 0.072476,0.109753 0.2032745,0.179929 0.347656,0.186524 0.1604115,0.0075 0.3120595,-0.06457 0.392578,-0.186524 L 7.0313865,13.1875 7.15541,13 H 7.5001365 8.5 8.6748045 c 0.423387,1.197522 1.5550325,1.998632 2.8251955,2 1.269804,-0.0018 2.400952,-0.802815 2.824219,-2 H 14.5 15.499864 15.84459 l 0.124023,0.1875 0.411133,0.625 c 0.07248,0.109753 0.203274,0.179929 0.347656,0.186524 0.160411,0.0075 0.31206,-0.06457 0.392578,-0.186524 L 17.531113,13.1875 17.655136,13 H 19 c 0,0.554 0.446,1 1,1 0.554,0 1,-0.446 1,-1 v -2 c 0,-0.554 -0.446,-1 -1,-1 -0.554,0 -1,0.446 -1,1 H 17.655136 L 17.531113,10.8125 17.11998,10.1875 C 17.039756,10.065174 16.888049,9.9927175 16.727402,10 c -0.144604,0.0068 -0.275451,0.07737 -0.347656,0.1875 L 15.968613,10.8125 15.84459,11 H 15.499864 14.5 14.325196 C 13.901809,9.802478 12.770163,9.0013685 11.5,9 Z"/>
 <path style="opacity:0.2;fill:#f4f4f7" d="M 1.75,8.5 C 1.3345,8.5 1,8.8345 1,9.25 v 0.5 C 1,9.3345 1.3345,9 1.75,9 H 2 2.25 3 V 8.5 H 2.25 2 Z M 20,8.5 V 9 H 20.75 21 21.25 C 21.6655,9 22,9.3345 22,9.75 V 9.25 C 22,8.8345 21.6655,8.5 21.25,8.5 H 21 20.75 Z"/>
</svg>

<svg xmlns="http://www.w3.org/2000/svg" width="24" height="24" version="1"><path style="opacity:.2" d="M3.85 6.5c-.471 0-.85.383-.85.857V9H1.75a.748.748 0 0 0-.75.75v5.5c0 .415.335.75.75.75H3v1.643c0 .474.379.857.85.857h15.3c.471 0 .85-.383.85-.857V16h1.25c.416 0 .75-.335.75-.75v-5.5a.748.748 0 0 0-.75-.75H20V7.357a.852.852 0 0 0-.85-.857z"/><rect style="fill:#afafb1" width="17" height="12" x="3" y="6" rx=".85" ry=".857"/><path style="opacity:.2" d="M3.85 6c-.471 0-.85.383-.85.857V7h17v-.143A.852.852 0 0 0 19.15 6zM3 17v.143c0 .474.379.857.85.857h15.3c.471 0 .85-.383.85-.857V17z"/><path style="fill:#afafb1" d="M1.75 8.5a.748.748 0 0 0-.75.75v5.5c0 .415.335.75.75.75H3v-7H2zM21.25 8.5c.416 0 .75.335.75.75v5.5c0 .415-.335.75-.75.75H20v-7h1z"/><path style="opacity:.1" d="M11.5 9.5a3 3 0 0 0-2.824 2H7.155l-.124-.188-.41-.624a.444.444 0 0 0-.393-.188.438.438 0 0 0-.348.188l-.411.624-.124.188H4c0-.554-.446-1-1-1s-1 .446-1 1v2c0 .554.446 1 1 1s1-.446 1-1h1.345l.124.188.411.624c.072.11.203.18.348.187a.444.444 0 0 0 .392-.187l.411-.624.124-.188h1.52a3 3 0 0 0 2.825 2 3 3 0 0 0 2.824-2h1.521l.124.188.41.624c.073.11.204.18.348.187a.444.444 0 0 0 .393-.187l.411-.624.124-.188H19c0 .554.446 1 1 1s1-.446 1-1v-2c0-.554-.446-1-1-1s-1 .446-1 1h-1.345l-.124-.188-.411-.624a.444.444 0 0 0-.393-.188.438.438 0 0 0-.347.188l-.411.624-.124.188h-1.52a3 3 0 0 0-2.825-2z"/><path style="fill:#17191e" d="M11.5 9a3 3 0 0 0-2.824 2H7.155l-.124-.188-.41-.624A.444.444 0 0 0 6.227 10a.438.438 0 0 0-.348.188l-.411.624-.124.188H4c0-.554-.446-1-1-1s-1 .446-1 1v2c0 .554.446 1 1 1s1-.446 1-1h1.345l.124.188.411.624c.072.11.203.18.348.187a.444.444 0 0 0 .392-.187l.411-.624.124-.188h1.52a3 3 0 0 0 2.825 2 3 3 0 0 0 2.824-2h1.521l.124.188.41.624c.073.11.204.18.348.187a.444.444 0 0 0 .393-.187l.411-.624.124-.188H19c0 .554.446 1 1 1s1-.446 1-1v-2c0-.554-.446-1-1-1s-1 .446-1 1h-1.345l-.124-.188-.411-.624a.444.444 0 0 0-.393-.188.438.438 0 0 0-.347.188l-.411.624-.124.188h-1.52A3 3 0 0 0 11.5 9z"/><path style="opacity:.2;fill:#f4f4f7" d="M1.75 8.5a.748.748 0 0 0-.75.75v.5c0-.415.335-.75.75-.75H3v-.5H2zM20 8.5V9h1.25c.416 0 .75.335.75.75v-.5a.748.748 0 0 0-.75-.75h-.5z"/></svg>
